Numix-GalliumOS/16/status/weather-storm.svg

<?xml version="1.0" encoding="UTF-8" standalone="no"?>
<svg
   xmlns:dc="http://purl.org/dc/elements/1.1/"
   xmlns:cc="http://creativecommons.org/ns#"
   xmlns:rdf="http://www.w3.org/1999/02/22-rdf-syntax-ns#"
   xmlns:svg="http://www.w3.org/2000/svg"
   xmlns="http://www.w3.org/2000/svg"
   xmlns:sodipodi="http://sodipodi.sourceforge.net/DTD/sodipodi-0.dtd"
   xmlns:inkscape="http://www.inkscape.org/namespaces/inkscape"
   width="16"
   viewBox="0 0 22 22"
   height="16"
   style="enable-background:new"
   id="svg22480"
   version="1.1"
   inkscape:version="0.91 r"
   sodipodi:docname="weather-storm.svg">
  <metadata
     id="metadata22599">
    <rdf:RDF>
      <cc:Work
         rdf:about="">
        <dc:format>image/svg+xml</dc:format>
        <dc:type
           rdf:resource="http://purl.org/dc/dcmitype/StillImage" />
      </cc:Work>
    </rdf:RDF>
  </metadata>
  <sodipodi:namedview
     pagecolor="#ffffff"
     bordercolor="#666666"
     borderopacity="1"
     objecttolerance="10"
     gridtolerance="10"
     guidetolerance="10"
     inkscape:pageopacity="0"
     inkscape:pageshadow="2"
     inkscape:window-width="1366"
     inkscape:window-height="747"
     id="namedview22597"
     showgrid="false"
     inkscape:zoom="14.75"
     inkscape:cx="-18"
     inkscape:cy="8"
     inkscape:window-x="0"
     inkscape:window-y="21"
     inkscape:window-maximized="1"
     inkscape:current-layer="svg22480" />
  <defs
     id="defs22482" />
  <g
     style="fill:#ececec;fill-opacity:1"
     id="g22579"
     transform="translate(2.9999997,2.9999953)">
    <path
       d="m 2.117681,7.7951705 c 0.5742259,0.1605174 1.3265412,0 1.3265412,0 0.3408665,0.6265154 1.4645142,1.043363 2.2483451,1.043363 1.2780796,0 2.5886868,-0.4414228 2.8912126,-1.043363 0,0 5.2926981,0.4414228 6.3912511,0 1.599246,-0.6426153 1.101894,-2.6519076 0.03782,-3.3307356 -1.064079,-0.678828 -2.458023,-0.2006468 -2.458023,-0.2006468 0,0 -0.0041,-1.3836758 -1.508961,-2.0440925 C 9.541049,1.559295 8.2693663,3.0197784 8.2693663,3.0197784 c 0,0 -0.9586818,-2.84985762 -3.6558468,-2.48801934 C 1.9213175,0.89292316 2.0042338,3.3006839 2.0042338,3.3006839 0.90155118,3.4960496 -1.4000001e-7,4.4993474 -1.4000001e-7,5.5479272 -1.4000001e-7,6.5964909 1.1523285,7.5253087 2.117681,7.7951705 z"
       id="path22581"
       inkscape:connector-curvature="0"
       style="fill:#ececec;fill-opacity:1" />
    <path
       d="m 1.8665331,14.665058 c -0.8629006,-0.248 0.020561,-1.923737 0.5502734,-2.471487 0.2551882,0.72387 0.3126272,2.719486 -0.5502734,2.471487 z"
       id="path22583"
       inkscape:connector-curvature="0"
       style="fill:#ececec;fill-opacity:1" />
    <path
       d="M 3.4883486,12.204776 C 2.625448,11.956776 3.5089098,10.281039 4.038622,9.7332894 4.2938102,10.457159 4.3512493,12.452775 3.4883486,12.204776 z"
       id="path22585"
       inkscape:connector-curvature="0"
       style="fill:#ececec;fill-opacity:1" />
    <path
       d="M 1.1654642,11.016835 C 0.30256356,10.768835 1.1860253,9.093098 1.7157361,8.5453485 1.9709242,9.2692177 2.0283648,11.264834 1.1654642,11.016835 z"
       id="path22587"
       inkscape:connector-curvature="0"
       style="fill:#ececec;fill-opacity:1" />
    <path
       d="m 9.4319067,15.403518 c -0.8629006,-0.248 0.020561,-1.923737 0.5502734,-2.471486 0.2551879,0.723869 0.3126269,2.719485 -0.5502734,2.471486 z"
       id="path22589"
       inkscape:connector-curvature="0"
       style="fill:#ececec;fill-opacity:1" />
    <path
       d="M 5.2942028,9.5207323 C 6.8146162,9.5962558 7.5102986,9.3578072 8.5841717,8.7984041 L 6.7690164,11.326553 8.8866976,11.607458 5.5589129,15.500005 6.8824636,12.369916 5.1807556,12.73108 5.2942028,9.5207323 z"
       id="path22591"
       inkscape:connector-curvature="0"
       style="fill:#ececec;fill-opacity:1" />
    <path
       d="m 11.294203,8.9105628 c 1.520413,0.075523 2.216096,-0.1629251 3.289969,-0.7223282 l -1.815156,2.5281494 2.117682,0.280905 -3.327785,3.892547 1.323551,-3.130089 -1.701708,0.361164 0.113447,-3.2103482 z"
       id="path22593"
       inkscape:connector-curvature="0"
       style="fill:#ececec;fill-opacity:1" />
    <path
       d="m 9.517882,11.123451 c -0.8629006,-0.248 0.020561,-1.9237373 0.550273,-2.4714873 0.255189,0.72387 0.312628,2.7194863 -0.550273,2.4714873 z"
       id="path22595"
       inkscape:connector-curvature="0"
       style="fill:#ececec;fill-opacity:1" />
  </g>
</svg>

<svg xmlns="http://www.w3.org/2000/svg" width="16" viewBox="0 0 22 22" height="16" style="enable-background:new">
 <g transform="translate(2.9999997,2.9999953)" style="fill:#ececec;fill-opacity:1">
  <path d="m 2.118 7.795 c 0.574 0.161 1.327 0 1.327 0 0.341 0.627 1.465 1.043 2.248 1.043 1.278 0 2.589 -0.441 2.891 -1.043 0 0 5.293 0.441 6.391 0 1.599 -0.643 1.102 -2.652 0.038 -3.331 -1.064 -0.679 -2.458 -0.201 -2.458 -0.201 0 0 -0.004 -1.384 -1.509 -2.044 c -1.505 -0.66 -2.777 0.8 -2.777 0.8 c 0 0 -0.959 -2.85 -3.656 -2.488 c -2.692 0.361 -2.609 2.769 -2.609 2.769 -1.103 0.195 -2 1.199 -2 2.247 0 1.049 1.152 1.977 2.118 2.247 z"/>
  <path d="m 1.867 14.665 c -0.863 -0.248 0.021 -1.924 0.55 -2.471 0.255 0.724 0.313 2.719 -0.55 2.471 z"/>
  <path d="m 3.488 12.205 c -0.863 -0.248 0.021 -1.924 0.55 -2.471 0.255 0.724 0.313 2.719 -0.55 2.471 z"/>
  <path d="m 1.165 11.02 c -0.863 -0.248 0.021 -1.924 0.55 -2.471 0.255 0.724 0.313 2.719 -0.55 2.471 z"/>
  <path d="m 9.432 15.404 c -0.863 -0.248 0.021 -1.924 0.55 -2.471 0.255 0.724 0.313 2.719 -0.55 2.471 z"/>
  <path d="m 5.294 9.521 c 1.52 0.076 2.216 -0.163 3.29 -0.722 l -1.815 2.528 2.118 0.281 -3.328 3.893 1.324 -3.13 -1.702 0.361 0.113 -3.21 z"/>
  <path d="m 11.294 8.911 c 1.52 0.076 2.216 -0.163 3.29 -0.722 l -1.815 2.528 2.118 0.281 -3.328 3.893 1.324 -3.13 -1.702 0.361 0.113 -3.21 z"/>
  <path d="m 9.518 11.123 c -0.863 -0.248 0.021 -1.924 0.55 -2.471 0.255 0.724 0.313 2.719 -0.55 2.471 z"/>
 </g>
</svg>
